Catalina-light/actions/16/view-form.svg

<svg xmlns="http://www.w3.org/2000/svg" width="16" height="16" viewBox="0 0 16 16">
 <defs>
  <style id="current-color-scheme" type="text/css">
   .ColorScheme-Text { color:#5c616c; } .ColorScheme-Highlight { color:#5294e2; }
  </style>
 </defs>
 <path style="fill:currentColor" class="ColorScheme-Text" d="M 2 1 C 2 1 1.9237994 1.0040975 1.8183594 1.0234375 C 1.6142394 1.0535875 1.4596731 1.1269325 1.3457031 1.2265625 C 1.3236031 1.2435025 1.30215 1.26163 1.28125 1.28125 C 1.26165 1.30222 1.2435625 1.3236331 1.2265625 1.3457031 C 1.1269625 1.4596731 1.0535875 1.6142394 1.0234375 1.8183594 C 1.0034375 1.9243594 1.0039062 2 1.0039062 2 L 1.0039062 14 C 1.0039062 15 2.0039062 15 2.0039062 15 L 14.003906 15 C 14.003906 15 15.003906 15 15.003906 14 L 15.003906 2 C 15.003906 2 14.999869 1.9237694 14.980469 1.8183594 C 14.950369 1.6142394 14.876964 1.4596831 14.777344 1.3457031 C 14.760444 1.3236331 14.742256 1.30222 14.722656 1.28125 C 14.701656 1.26163 14.680003 1.2435025 14.658203 1.2265625 C 14.544233 1.1269325 14.389667 1.0535875 14.185547 1.0234375 C 14.085547 1.0044375 14.005859 1 14.005859 1 L 2.0058594 1 L 2 1 z M 4 5 L 7 5 L 7 11 L 4 11 L 4 5 z M 8 6 L 12 6 L 12 7 L 8 7 L 8 6 z M 8 9 L 12 9 L 12 10 L 8 10 L 8 9 z"/>
</svg>

<svg width="16" height="16" viewBox="0 0 16 16" xmlns="http://www.w3.org/2000/svg">
<defs>
<style id="current-color-scheme" type="text/css">.ColorScheme-Text { color:#5c616c; } .ColorScheme-Highlight { color:#5294e2; }</style>
</defs>
<path class="ColorScheme-Text" d="m2 1s-0.076201 0.0040975-0.18164 0.023438c-0.20412 0.03015-0.35869 0.1035-0.47266 0.20312-0.0221 0.01694-0.043553 0.035068-0.064453 0.054688-0.0196 0.02097-0.037688 0.042383-0.054688 0.064453-0.0996 0.11397-0.17298 0.26854-0.20312 0.47266-0.02 0.106-0.019531 0.18164-0.019531 0.18164v12c0 1 1 1 1 1h12s1 0 1-1v-12s-0.004037-0.076231-0.023437-0.18164c-0.0301-0.20412-0.1035-0.35868-0.20312-0.47266-0.0169-0.02207-0.035088-0.043483-0.054688-0.064453-0.021-0.01962-0.042653-0.037748-0.064453-0.054688-0.11397-0.09963-0.26854-0.17298-0.47266-0.20312-0.1-0.019-0.17969-0.023438-0.17969-0.023438h-12-0.0058594zm2 4h3v6h-3v-6zm4 1h4v1h-4v-1zm0 3h4v1h-4v-1z" fill="#363636"/>
</svg>
